dist/svg/virtual-machine.svg

<!-- Generated by Trend Micro Style Portal -->
<svg version="1.1" xmlns="http://www.w3.org/2000/svg" width="16" height="16" viewBox="0 0 16 16">
  <title>virtual-machine</title>
  <path fill="rgb(34,34,34)" d="M0 16h16v-4h-16v4zM13 13h1v1h-1v-1zM2 13h5v1h-5v-1zM15 5.003v0.995h1v4.005h-1v0.997h-2v-1h2v-4h-2v-1h2v-4h-2v-1h2v0.997h1v4.005h-1zM3 1h-2v-1h2v1zM1 4.994h-1v-3.977h1v3.977zM6 1h-2v-1h2v1zM9 1h-2v-1h2v1zM12 1h-2v-1h2v1zM3 6h-2v-1h2v1zM1 9.994h-1v-3.977h1v3.977zM1 10h2v1h-2v-1zM6 6h-2v-1h2v1zM6 11h-2v-1h2v1zM9 6h-2v-1h2v1zM12 11h-2v-1h2v1zM12 6h-2v-1h2v1zM9 11h-2v-1h2v1zM14 3h-1v-1h1v1zM14 8h-1v-1h1v1z"></path>
</svg>

<svg width="16" height="16" viewBox="0 0 16 16" fill="rgb(34, 34, 34)" xmlns="http://www.w3.org/2000/svg"><title>virtual-machine</title><g clip-path="url(#clip0_281_992)"><path d="M0 16H16V12H0V16ZM13 13H14V14H13V13ZM2 13H7V14H2V13ZM15 5.003V5.998H16V10.003H15V11H13V10H15V6H13V5H15V1H13V0H15V0.997H16V5.002L15 5.003ZM3 1H1V0H3V1ZM1 4.994H0V1.017H1V4.994ZM6 1H4V0H6V1ZM9 1H7V0H9V1ZM12 1H10V0H12V1ZM3 6H1V5H3V6ZM1 9.994H0V6.017H1V9.994ZM1 10H3V11H1V10ZM6 6H4V5H6V6ZM6 11H4V10H6V11ZM9 6H7V5H9V6ZM12 11H10V10H12V11ZM12 6H10V5H12V6ZM9 11H7V10H9V11ZM14 3H13V2H14V3ZM14 8H13V7H14V8Z" fill="rgb(34, 34, 34)" fill-opacity="1.00"/></g><defs><clipPath id="clip0_281_992"><rect width="16" height="16" fill="rgb(34, 34, 34)"/></clipPath></defs></svg>
